X: 20532
T: MARCH in Abon Hassan
Q: "Vivace"
R: march
B: "Edinburgh Repository of Music" v.2 p.53 #2
F: http://digital.nls.uk/special-collections-of-printed-music/pageturner.cfm?id=87776133
Z: 2015 John Chambers <jc:trillian.mit.edu>
M: C
L: 1/8
K: D
[|\
a2g>f a2g>f | f>ed>e f2d2 |\
a2g>f a2g>f | f>ed>e d2z2 |\
^d2cd e2fg | a2g>a b4 |
a2g>f a2g>f | f>ed>e d2z2 |\
e2e>e f2a2 | e2e>e f2a2 |\
a2g>f a2g>f | f>ed>e d2z2 |]

%%sep 2 1 500
%%sep 1 1 500

